X:1
T:Ferch fwyn, Y
T:Gentle Maid, The
M:2/4
L:1/8
Q:"Andante"
R:Air
B:Nicholas Bennett – Alawon fy Ngwlad (1896, p. 49)
Z:AK/Fiddler’s Companion
K:F
(F/G/)|A2 (GF)|c2 zd|e2 (cA)|(GA) zA|B2 (dB)|
(Bc) zG|A2 (BG)|F2 z||c|f2 (cA)|B2 (cd)
|_e2 (cB)|A2 zc|BGAc|BEFG|A2 (BG)|[A,2F2]z||

